outputs/icons/editor/align_horizontal_right_round.svg

<svg xmlns="http://www.w3.org/2000/svg" width="1200" height="1200" fill="none"><g clip-path="url(#a)"><path fill="#000" d="M1050 100c27.5 0 50 22.5 50 50v900c0 27.5-22.5 50-50 50s-50-22.5-50-50V150c0-27.5 22.5-50 50-50M175 500h650c41.5 0 75-33.5 75-75s-33.5-75-75-75H175c-41.5 0-75 33.5-75 75s33.5 75 75 75m300 350h350c41.5 0 75-33.5 75-75s-33.5-75-75-75H475c-41.5 0-75 33.5-75 75s33.5 75 75 75"/></g><defs><clipPath id="a"><path fill="#fff" d="M0 0h1200v1200H0z"/></clipPath></defs></svg>

<svg width="1200" height="1200" viewBox="0 0 1200 1200" fill="none" xmlns="http://www.w3.org/2000/svg"><g clip-path="url(#clip0_238_244)"><path d="M1050 100C1077.5 100 1100 122.5 1100 150V1050C1100 1077.5 1077.5 1100 1050 1100C1022.5 1100 1000 1077.5 1000 1050V150C1000 122.5 1022.5 100 1050 100ZM175 500H825C866.5 500 900 466.5 900 425C900 383.5 866.5 350 825 350H175C133.5 350 100 383.5 100 425C100 466.5 133.5 500 175 500ZM475 850H825C866.5 850 900 816.5 900 775C900 733.5 866.5 700 825 700H475C433.5 700 400 733.5 400 775C400 816.5 433.5 850 475 850Z" fill="#1D1E23"/></g><defs><clipPath id="clip0_238_244"><path width="24" fill="white" d="M0 0H1200V1200H0V0z"/></clipPath></defs></svg>
